X:1
T:Advance Australia Fair
M:C
L:1/8
Q:80
C:Unk
S:Slow March
K:HP
[| A | \
{Gdc}dA{g}G{d}A{Gdc}d3/2{c}d/2{gdc}df | \
{gef}ed{g}cd{gef}e2{A}eA | \
{Gdc}dA{g}G{d}A{Gdc}d3/2{c}d{gdc}df |
{gef}ed{gcd}cB{g}A2{GBG}A{d}A | \
{g}B3/2c/2{Gdc}dB{g}A3/2{e}B/2{g}A3/2{d}B/2 | \
{g}Ad{gf}g{a}f{gef}e2{A}eA |
{g}B3/2c/2{Gdc}dB{g}G3/2d/2{gdc}d3/2e/2 | \
{gfg}f3/2d/2{gef}e3/2c/2{Gdc}d2{gdc}df | \
{gf}g{a}f{gef}ed{gcd}c{e}B{G}A{Gdc}d |
{gfg}f3/2d/2{gef}e3/2c/2{Gdc}d2{gdc}d|]
